X: 10945
T: Drummond Castle
R: jig
M: 6/8
K: Aminor
A3 a3|age ~g3|c2 c edc|B/c/dg dBG|
A2 d a3|age ~g3|e2e deg|edB AGE:|
|:c2 d edc|d3 ded|c2 c edc|B/c/dg dBG|
c2 d edc|deg a2 g|ege deg|edB AGE:|

